assets/icons/qvision/screen_lock_rotation.svg

<svg xmlns="http://www.w3.org/2000/svg" height="24" viewBox="0 0 24 24" width="24"><path d="M0 0h24v24H0z" fill="none"/><path d="M23.25 12.77l-2.57-2.57-1.41 1.41 2.22 2.22-5.66 5.66L4.51 8.17l5.66-5.66 2.1 2.1 1.41-1.41L11.23.75c-.59-.59-1.54-.59-2.12 0L2.75 7.11c-.59.59-.59 1.54 0 2.12l12.02 12.02c.59.59 1.54.59 2.12 0l6.36-6.36c.59-.59.59-1.54 0-2.12zM8.47 20.48C5.2 18.94 2.86 15.76 2.5 12H1c.51 6.16 5.66 11 11.95 11l.66-.03-3.81-3.82-1.33 1.33zM16 9h5c.55 0 1-.45 1-1V4c0-.55-.45-1-1-1v-.5C21 1.12 19.88 0 18.5 0S16 1.12 16 2.5V3c-.55 0-1 .45-1 1v4c0 .55.45 1 1 1zm.8-6.5c0-.94.76-1.7 1.7-1.7s1.7.76 1.7 1.7V3h-3.4v-.5z"/></svg>

<svg width="24" height="24" viewBox="0 0 24 24" fill="none" xmlns="http://www.w3.org/2000/svg">
<g clip-path="url(#clip0_147_2435)">
<path d="M23.25 12.77L20.68 10.2L19.27 11.61L21.49 13.83L15.83 19.49L4.51 8.17L10.17 2.51L12.27 4.61L13.68 3.2L11.23 0.75C10.64 0.16 9.69 0.16 9.11 0.75L2.75 7.11C2.16 7.7 2.16 8.65 2.75 9.23L14.77 21.25C15.36 21.84 16.31 21.84 16.89 21.25L23.25 14.89C23.84 14.3 23.84 13.35 23.25 12.77ZM8.47 20.48C5.2 18.94 2.86 15.76 2.5 12H1C1.51 18.16 6.66 23 12.95 23L13.61 22.97L9.8 19.15L8.47 20.48ZM16 9H21C21.55 9 22 8.55 22 8V4C22 3.45 21.55 3 21 3V2.5C21 1.12 19.88 0 18.5 0C17.12 0 16 1.12 16 2.5V3C15.45 3 15 3.45 15 4V8C15 8.55 15.45 9 16 9ZM16.8 2.5C16.8 1.56 17.56 0.8 18.5 0.8C19.44 0.8 20.2 1.56 20.2 2.5V3H16.8V2.5Z" fill="#323232"/>
</g>
<defs>
<clipPath id="clip0_147_2435">
<rect width="24" height="24" fill="white"/>
</clipPath>
</defs>
</svg>
